assets/img/braze_icons/file-check-02.svg

<svg fill="none" height="24" viewBox="0 0 24 24" width="24" xmlns="http://www.w3.org/2000/svg"><g fill="#801ed7"><path clip-rule="evenodd" d="m15.2413 1h-6.4826c-.80495-.000012-1.46934-.000021-2.01052.0442-.5621.04592-1.0788.14448-1.56414.39178-.75265.38349-1.36457.99541-1.74806 1.74806-.2473.48534-.34586 1.00204-.39178 1.56414-.04422.54118-.04421 1.20555-.0442 2.01051v10.48261c-.00001.805-.00002 1.4693.0442 2.0105.04592.5621.14448 1.0788.39178 1.5642.38349.7526.99541 1.3645 1.74806 1.748.48534.2473 1.00204.3459 1.56414.3918.54119.0442 1.20554.0442 2.0105.0442h4.25602c.0295 0 .0442 0 .0529-.0003.4287-.0149.6408-.5272.3483-.8408-.006-.0063-.0164-.0167-.0372-.0376-1.1716-1.1716-1.1716-3.071 0-4.2426 1.1308-1.1309 2.9399-1.1702 4.1179-.1179l2.3821-2.3821c.1863-.1864.3911-.3431.6084-.4701.2222-.1299.3333-.1949.3858-.2536.0549-.0616.0775-.1009.1029-.1795.0242-.0749.0242-.1735.0242-.3708v-7.34602c0-.80496 0-1.46931-.0442-2.0105-.0459-.5621-.1445-1.0788-.3918-1.56414-.3835-.75265-.9954-1.36457-1.748-1.74806-.4854-.2473-1.0021-.34586-1.5642-.39178-.5412-.044221-1.2055-.044212-2.0105-.0442zm-7.2413 8c-.55228 0-1 .44771-1 1 0 .5523.44772 1 1 1h6c.5523 0 1-.4477 1-1 0-.55229-.4477-1-1-1zm-1 5c0-.5523.44772-1 1-1h2c.5523 0 1 .4477 1 1s-.4477 1-1 1h-2c-.55228 0-1-.4477-1-1zm1-9c-.55228 0-1 .44772-1 1 0 .55229.44772 1 1 1h8c.5523 0 1-.44771 1-1 0-.55228-.4477-1-1-1z" fill-rule="evenodd"/><path d="m22.7071 18.2071c.3905-.3905.3905-1.0237 0-1.4142s-1.0237-.3905-1.4142 0l-3.7929 3.7929-1.2929-1.2929c-.3905-.3905-1.0237-.3905-1.4142 0s-.3905 1.0237 0 1.4142l2 2c.3905.3905 1.0237.3905 1.4142 0z"/></g></svg>

<svg width="24" height="24" viewBox="0 0 24 24" fill="none" xmlns="http://www.w3.org/2000/svg">
<path fill-rule="evenodd" clip-rule="evenodd" d="M15.2413 1H8.7587C7.95375 0.999988 7.28936 0.999979 6.74818 1.0442C6.18608 1.09012 5.66938 1.18868 5.18404 1.43598C4.43139 1.81947 3.81947 2.43139 3.43598 3.18404C3.18868 3.66938 3.09012 4.18608 3.0442 4.74818C2.99998 5.28936 2.99999 5.95373 3 6.75869V17.2413C2.99999 18.0463 2.99998 18.7106 3.0442 19.2518C3.09012 19.8139 3.18868 20.3306 3.43598 20.816C3.81947 21.5686 4.43139 22.1805 5.18404 22.564C5.66938 22.8113 6.18608 22.9099 6.74818 22.9558C7.28937 23 7.95372 23 8.75868 23H13.0147C13.0442 23 13.0589 23 13.0676 22.9997C13.4963 22.9848 13.7084 22.4725 13.4159 22.1589C13.4099 22.1526 13.3995 22.1422 13.3787 22.1213C12.2071 20.9497 12.2071 19.0503 13.3787 17.8787C14.5095 16.7478 16.3186 16.7085 17.4966 17.7608L19.8787 15.3787C20.065 15.1923 20.2698 15.0356 20.4871 14.9086C20.7093 14.7787 20.8204 14.7137 20.8729 14.655C20.9278 14.5934 20.9504 14.5541 20.9758 14.4755C21 14.4006 21 14.302 21 14.1047V6.75868C21 5.95372 21 5.28937 20.9558 4.74818C20.9099 4.18608 20.8113 3.66938 20.564 3.18404C20.1805 2.43139 19.5686 1.81947 18.816 1.43598C18.3306 1.18868 17.8139 1.09012 17.2518 1.0442C16.7106 0.999979 16.0463 0.999988 15.2413 1ZM8 9C7.44772 9 7 9.44771 7 10C7 10.5523 7.44772 11 8 11H14C14.5523 11 15 10.5523 15 10C15 9.44771 14.5523 9 14 9H8ZM7 14C7 13.4477 7.44772 13 8 13H10C10.5523 13 11 13.4477 11 14C11 14.5523 10.5523 15 10 15H8C7.44772 15 7 14.5523 7 14ZM8 5C7.44772 5 7 5.44772 7 6C7 6.55229 7.44772 7 8 7H16C16.5523 7 17 6.55229 17 6C17 5.44772 16.5523 5 16 5H8Z" fill="#801ED7"/>
<path d="M22.7071 18.2071C23.0976 17.8166 23.0976 17.1834 22.7071 16.7929C22.3166 16.4024 21.6834 16.4024 21.2929 16.7929L17.5 20.5858L16.2071 19.2929C15.8166 18.9024 15.1834 18.9024 14.7929 19.2929C14.4024 19.6834 14.4024 20.3166 14.7929 20.7071L16.7929 22.7071C17.1834 23.0976 17.8166 23.0976 18.2071 22.7071L22.7071 18.2071Z" fill="#801ED7"/>
</svg>
